X:1
T:Tallis' Canon in G
M:4/4
R:
K:G
L:1/4
V:1
G|GFGG|AABG|ccBB|AAGd|
cABB|AAGD|EFGB|AAGG|
GFGG|AABG|ccBB|AAGd|
cABB|AAGD|EFGB|AAG2:|
%V:2
%|z4|G|GFGG|AABG|ccBB|AAGd|
%cABB|AAGD|EFGB|AAGG|
%GFGG|AABG|ccBB|AAGd|
%cABB|AAGD|EFGB|AAG2:|
